X:696
T:
N:Marsch (även Sjottis),
S:uppt. efter »Florsen» i Burs.
R:marsch
O:Gotland, Burs
M:2/4
L:1/16
K:D
d2Ad f2df|a2fa d'3f|b3a g2e2|b3a f4|
d2Ad f2df|a2fa d'3f|b3a g2e2|d2d2 d4:|
|:b3a g2eg|b2a2 f2df|a2g2 A2ce|defg a4|
b3a g2eg|b2a2 f2df|a2g2 A2ce|d2d2 d4:|

